X:4
T:Pigeon on the Gate, The
R:reel
B:Ceol Rince na hEireann II, 250(ii). 
N:A version from Laurence McDonagh, Co. Sligo.
Z:id:hn-reel-653
M:4/4
L:1/8
K:Edor
dc|BE~E2 BdcA|BE~E2 B2AG|FADA FADA|FADA FAD2|
   BE~E2 BdcA|BE~E2 {c}BAFA|ABde fedc|1 BG{c}AF E2:|2 BG{c}AF E2Ez|]
~e3f gfga|b2{c}af gfe2|BdAF ~G3A|Bdef {a}gfe2|
Beef gfga|bagf {a}gfe2|BdAF ~G3A|1 BAGF E3z:|2 BAGF E2|]
</abc>
